source/img/logo-pic-mobile.svg

<svg width="40" height="40" viewBox="0 0 40 40" fill="none" xmlns="http://www.w3.org/2000/svg">
<path d="M9.07 21.72V19.46C15.7536 18.5423 22.4937 18.0979 29.24 18.13C29.24 18.73 29.24 19.34 29.18 19.95C31.0976 19.099 33.1128 18.4877 35.18 18.13C33.8625 14.722 31.4618 11.8412 28.3471 9.93087C25.2325 8.02052 21.5764 7.1864 17.9414 7.55683C14.3064 7.92727 10.8938 9.48172 8.22852 11.9811C5.56325 14.4804 3.79297 17.7863 3.19 21.39L9.07 21.72Z" fill="#FDC305"/>
<path d="M30.24 25.23C29.08 26.51 28.85 26.43 28.85 28.68C28.85 29.59 28.85 33.58 28.85 37.86C31.1425 36.346 33.0245 34.2879 34.328 31.8694C35.6315 29.4509 36.3158 26.7474 36.32 24C36.3068 22.9591 36.1997 21.9216 36 20.9C33.9282 22.1295 31.9968 23.5814 30.24 25.23Z" fill="#FDC305"/>
<path d="M9.36 26.72C9.36 26.72 5.57 25.28 4.17 24.89C3.78707 24.7693 3.3961 24.6757 3 24.61C3.1084 27.496 3.96559 30.3041 5.48739 32.7586C7.00919 35.2131 9.14326 37.2296 11.68 38.61L9.36 26.72Z" fill="#FDC305"/>
<path d="M29.29 18.12C29.3307 12.5986 28.862 7.08528 27.89 1.65C27.89 1.65 27.75 0.36 27 1.41C26.4109 2.65814 26.0067 3.98539 25.8 5.35C21.5418 5.07577 17.2675 5.18957 13.03 5.69C12.24 3 10.85 1.75 10.18 2C9.51 2.25 9.46 5.31 9.46 5.31L9.13 19.41C15.8113 18.506 22.548 18.0749 29.29 18.12V18.12Z" fill="#F06351"/>
<path d="M15.41 15C15.41 14.91 16.41 15.68 16.82 15.92C17.23 16.16 17.43 16.34 17.43 16.51C17.43 16.68 17.16 16.85 16.8 16.85C16.44 16.85 15.89 16.73 15.8 16.58H16.74H17.03C16.4207 16.1294 15.8757 15.5978 15.41 15V15Z" fill="black"/>
<path d="M22.89 15.11L21.8 16.44C21.8 16.5 21.63 16.79 21.98 16.74C22.3942 16.6783 22.8023 16.5812 23.2 16.45C23.31 16.45 23.27 16.26 23.09 16.28C22.91 16.3 22.4 16.33 22.09 16.39L22.93 15.13C22.93 15.13 23 15 22.89 15.11Z" fill="black"/>
<path d="M19.75 21.2C20.2135 20.9958 20.5967 20.6443 20.84 20.2C21.12 19.55 20.84 19.29 20.4 19.2C19.7979 19.0902 19.1765 19.2116 18.66 19.54C18.27 19.9 18.32 20.26 18.61 20.54C18.9613 20.8062 19.3442 21.0279 19.75 21.2V21.2Z" fill="black"/>
<path d="M19.35 22.45C19.2379 22.6785 19.0816 22.8825 18.89 23.05C18.6052 23.2791 18.2551 23.4122 17.89 23.43C17.3638 23.472 16.8406 23.3189 16.42 23C16.2222 22.8808 16.0436 22.7324 15.89 22.56C15.7895 22.4491 15.6669 22.3605 15.53 22.3C15.53 22.3 16.28 26.4 18.1 27.05C19.92 27.7 20.24 26.3 20.3 25.92C20.3601 24.7851 20.0742 23.6588 19.48 22.69C19.46 22.38 19.45 22.58 19.35 22.45Z" fill="#F06351"/>
<path d="M17.71 23.59C17.2453 23.5247 16.7989 23.3651 16.3982 23.1209C15.9975 22.8767 15.651 22.5531 15.38 22.17C15.3667 22.157 15.3561 22.1414 15.3489 22.1242C15.3417 22.1071 15.338 22.0886 15.338 22.07C15.338 22.0514 15.3417 22.0329 15.3489 22.0158C15.3561 21.9986 15.3667 21.983 15.38 21.97C15.393 21.9567 15.4086 21.9461 15.4258 21.9389C15.4429 21.9317 15.4614 21.928 15.48 21.928C15.4986 21.928 15.5171 21.9317 15.5342 21.9389C15.5514 21.9461 15.567 21.9567 15.58 21.97C16.0848 22.6642 16.843 23.1313 17.69 23.27V23.27C18.0217 23.245 18.3426 23.1413 18.6261 22.9674C18.9096 22.7934 19.1475 22.5544 19.32 22.27L19.46 22.08L19.56 22.29C19.56 22.29 19.93 23.05 20.56 23.09C21.19 23.13 21.61 22.68 22.17 21.81C22.183 21.7967 22.1986 21.7861 22.2158 21.7789C22.2329 21.7717 22.2514 21.768 22.27 21.768C22.2886 21.768 22.3071 21.7717 22.3242 21.7789C22.3414 21.7861 22.357 21.7967 22.37 21.81C22.4023 21.8306 22.4255 21.8629 22.4348 21.9C22.4441 21.9372 22.4388 21.9766 22.42 22.01C21.78 23.01 21.15 23.45 20.54 23.41C20.308 23.3763 20.0867 23.2904 19.8927 23.1587C19.6987 23.0271 19.5371 22.8531 19.42 22.65C19.2233 22.9245 18.9676 23.1514 18.6717 23.3141C18.3758 23.4767 18.0472 23.571 17.71 23.59V23.59Z" fill="black"/>
<path d="M29.24 19.92C27.4445 21.5437 25.7512 23.277 24.17 25.11C22.5986 26.9361 20.8238 28.5768 18.88 30C18.66 29.47 17.26 28.49 17.26 28.49C17.26 28.49 14.13 26.35 12.08 24.67C10.9741 23.7373 9.9287 22.7353 8.95 21.67L6.95 21.56C9.84017 25.7655 14.0702 28.8676 18.95 30.36C19.81 30.22 22.22 28.5 24.02 27.1C26.1389 25.2819 28.124 23.3134 29.96 21.21C30.4625 20.621 30.8493 19.9425 31.1 19.21C30 19.6 29.24 19.92 29.24 19.92Z" fill="#F06351"/>
</svg>

<svg xmlns="http://www.w3.org/2000/svg" fill="none" viewBox="0 0 40 40"><path fill="#FDC305" d="M9.07 21.72v-2.26c6.68-.92 13.42-1.36 20.17-1.33 0 .6 0 1.21-.06 1.82a25.52 25.52 0 0 1 6-1.82 16.67 16.67 0 0 0-31.99 3.26l5.88.33ZM30.24 25.23c-1.16 1.28-1.39 1.2-1.39 3.45v9.18A16.64 16.64 0 0 0 36.32 24a17.3 17.3 0 0 0-.32-3.1c-2.07 1.23-4 2.68-5.76 4.33ZM9.36 26.72s-3.79-1.44-5.19-1.83A8.54 8.54 0 0 0 3 24.61a16.65 16.65 0 0 0 8.68 14L9.36 26.72Z"/><path fill="#F06351" d="M29.29 18.12a89.8 89.8 0 0 0-1.4-16.47S27.75.36 27 1.41c-.59 1.25-1 2.58-1.2 3.94a70.34 70.34 0 0 0-12.77.34C12.24 3 10.85 1.75 10.18 2c-.67.25-.72 3.31-.72 3.31l-.33 14.1c6.68-.9 13.42-1.34 20.16-1.29Z"/><path fill="#000" d="M15.41 15c0-.09 1 .68 1.41.92.41.24.61.42.61.59 0 .17-.27.34-.63.34s-.91-.12-1-.27h1.23A8.34 8.34 0 0 1 15.41 15ZM22.89 15.11l-1.09 1.33c0 .06-.17.35.18.3.41-.06.82-.16 1.22-.29.11 0 .07-.19-.11-.17-.18.02-.69.05-1 .11l.84-1.26s.07-.13-.04-.02ZM19.75 21.2c.46-.2.85-.56 1.09-1 .28-.65 0-.91-.44-1-.6-.11-1.22.01-1.74.34-.39.36-.34.72-.05 1 .35.27.73.49 1.14.66Z"/><path fill="#F06351" d="M19.35 22.45c-.11.23-.27.43-.46.6-.28.23-.63.36-1 .38a2.15 2.15 0 0 1-1.47-.43 2.3 2.3 0 0 1-.53-.44c-.1-.11-.22-.2-.36-.26 0 0 .75 4.1 2.57 4.75 1.82.65 2.14-.75 2.2-1.13a5.61 5.61 0 0 0-.82-3.23c-.02-.31-.03-.11-.13-.24Z"/><path fill="#000" d="M17.71 23.59a3.44 3.44 0 0 1-2.36-1.47.14.14 0 0 1 .03-.15.14.14 0 0 1 .2 0c.5.7 1.26 1.16 2.11 1.3a2.1 2.1 0 0 0 1.63-1l.14-.19.1.21s.37.76 1 .8c.63.04 1.05-.41 1.61-1.28a.14.14 0 0 1 .2 0 .15.15 0 0 1 .05.2c-.64 1-1.27 1.44-1.88 1.4a1.55 1.55 0 0 1-1.12-.76 2.26 2.26 0 0 1-1.71.94Z"/><path fill="#F06351" d="M29.24 19.92a58.63 58.63 0 0 0-5.07 5.19A31.63 31.63 0 0 1 18.88 30c-.22-.53-1.62-1.51-1.62-1.51s-3.13-2.14-5.18-3.82a34.13 34.13 0 0 1-3.13-3l-2-.11c2.89 4.2 7.12 7.3 12 8.8.86-.14 3.27-1.86 5.07-3.26a58.13 58.13 0 0 0 5.94-5.89c.5-.59.89-1.27 1.14-2-1.1.39-1.86.71-1.86.71Z"/></svg>
